X: 802
P: Longways for as many as will
M: 9/8
L: 1/8
K: Bb
V: 1
|: d |\
V: 2 clef=bass middle=d
|: B |\
d3 edc BAG | d3   D3 G2B | G3 =B2c dc_B | GFE F2c F3 |

